svg/city_worker_negative.svg

<?xml version="1.0" encoding="UTF-8" standalone="no"?>
<!-- Created with Inkscape (http://www.inkscape.org/) -->
<svg id="svg8" xmlns:rdf="http://www.w3.org/1999/02/22-rdf-syntax-ns#" xmlns="http://www.w3.org/2000/svg" xmlns:osb="http://www.openswatchbook.org/uri/2009/osb" height="48" width="48" version="1.1" xmlns:cc="http://creativecommons.org/ns#" viewBox="0 0 12.7 12.7" xmlns:dc="http://purl.org/dc/elements/1.1/">
 <title id="title4753">UIO-icon</title>
 <metadata id="metadata5">
  <rdf:RDF>
   <cc:Work rdf:about="">
    <dc:format>image/svg+xml</dc:format>
    <dc:type rdf:resource="http://purl.org/dc/dcmitype/StillImage"/>
    <dc:title>UIO-icon</dc:title>
    <dc:creator>
     <cc:Agent>
      <dc:title>Joaquín Urbano</dc:title>
     </cc:Agent>
    </dc:creator>
    <dc:rights>
     <cc:Agent>
      <dc:title>GPL</dc:title>
     </cc:Agent>
    </dc:rights>
   </cc:Work>
  </rdf:RDF>
 </metadata>
 <g id="layer1" fill="#333" transform="translate(0,-284.3)">
  <path id="rect9024" d="m0 0v48h48v-48zm23.471 4.9746c0.009461 0.000001512 0.017431-0.000054047 0.027344 0h0.002c6.8866 0.0080991 8.0731 3.1106 8.0332 12.484-0.10298 0.80265 0.10726 2.19-1.0703 2.1699v-0.51562c-0.002184-0.00010772-0.003668 0.00209-0.005859 0.001953l-0.015625-3.6191c-0.039167-0.88759-0.07802-1.758-0.11719-2.6719-0.0866-0.64974-0.33565-0.75978-0.7168-0.4375l-0.295 0.127c-1.9817 1.226-3.9836-1.1653-6.3848-3.5957-0.052231 0.92469-0.045814 2.0847-0.66797 2.6387-0.57529 0.47707-1.5105 0.52684-2.3965 0.63672-1.1616 0.27572-2.2891 0.62934-2.8438 2.2637-0.38964 1.0205-0.39576 1.6924-0.48242 2.4375v2.6328c-1.118-0.2481-1.1318-1.5249-1.1406-2.0684-0.059-8.3693 1.035-12.466 8.075-12.485zm-0.112 5.1094c2.26 2.2699 3.8925 4.0739 6.4512 2.7715 0.13851 2.238 0.16984 4.4407 0.13672 6.7168 0 1.8753-0.63336 4.0318-2.0469 4.916-1.572 0.98365-3.2259 2.1971-4.3652 2.1934-1.6637-0.047622-2.946-1.0229-4.8359-2.2129-1.335-0.84099-1.6652-2.9881-1.6602-4.873l0.007813-2.9883c0.72482-6.6209 5.8366-1.7816 6.3125-6.5234zm-2.8672 5.8574c-0.43897 0.00011339-0.79482 0.35602-0.79492 0.79492 0.00009823 0.43894 0.35597 0.79481 0.79492 0.79492 0.43897-0.00011339 0.79482-0.35605 0.79492-0.79492-0.00009835-0.43898-0.35597-0.79481-0.79492-0.79492zm5.9688 0c-0.43897 0.00011339-0.79483 0.35602-0.79492 0.79492 0.00009446 0.43894 0.35593 0.79481 0.79492 0.79492 0.43897-0.00011339 0.79482-0.35605 0.79492-0.79492-0.00009823-0.43898-0.35597-0.79481-0.79492-0.79492zm-3.035 3.668c-0.37814 0.00378-0.67004 0.070579-0.66602 0.14844 0.002 0.080882 0.32239 0.14687 0.7168 0.14648 0.39441 0.00003779 0.71477-0.06561 0.7168-0.14648 0.003201-0.082016-0.31865-0.14844-0.7168-0.14844-0.017008-0.00011339-0.034001-0.00011339-0.050781 0zm2.9551 2.2617c-0.00007556 0.00041575-0.011341 0.001424-0.011719 0.001953 0.00011713 0.00037795 0.011719-0.00041575 0.011719 0zm-0.011719 0.001953c-0.015874-0.053669-1.2268 0.071175-2.7285 0.2832-0.06444 0.007559-0.12896 0.019785-0.19336 0.027344-1.4369 0.2075-2.5416 0.40995-2.5215 0.46094 0.026079 0.052158 1.2485-0.077416 2.7422-0.28906 1.4821-0.21014 2.6733-0.42369 2.7012-0.48242zm3.9434 5.5605c1.4813 0.57287 3.4132 1.3689 5.0566 2.1094 1.0649 0.46137 2.1621 0.92102 3.373 1.3418 2.5451 0.75129 2.5449 2.867 2.5449 4.0195v6.6621h-35.571v-6.6621c0-1.1525-0.00017116-3.27 2.5449-4.0195 1.0957-0.38071 2.0962-0.79443 3.0684-1.2109l2.6523-1.1484c0.81205-0.3387 1.7358-0.70705 2.5859-1.0391 1.5221 4.0391 3.056 8.0737 4.582 12.111l1.8281-7.3496c-0.47269-1.2855-1.3644-2.7129-0.85742-3.6719 1.0062 0.42149 2.0114 0.35197 3.0176-0.050781 0.36314 0.95012-0.15044 2.2633-0.60547 3.5527 0 0 0.83673 2.9269 1.7422 5.9668-0.006423 0.043235-0.009601 0.058578-0.015625 0.099609z" fill-rule="evenodd" transform="matrix(.26458 0 0 .26458 0 284.3)"/>
 </g>
</svg>

<svg width="48" height="48" viewBox="0 0 48 48" fill="none" xmlns="http://www.w3.org/2000/svg">
<path fill-rule="evenodd" clip-rule="evenodd" d="M0 0V47.9994H47.9994V0H0ZM23.4707 4.97454C23.4802 4.97454 23.4881 4.97448 23.4981 4.97454H23.5C30.3866 4.98264 31.573 8.0851 31.5332 17.4584C31.4302 18.261 31.6404 19.6484 30.4629 19.6283V19.1126C30.4607 19.1125 30.4592 19.1147 30.457 19.1146L30.4414 15.4955C30.4022 14.608 30.3634 13.7376 30.3242 12.8237C30.2376 12.1739 29.9885 12.0639 29.6074 12.3862L29.3124 12.5132C27.3307 13.7392 25.3289 11.3479 22.9277 8.91752C22.8755 9.8422 22.8819 11.0022 22.2597 11.5562C21.6844 12.0333 20.7492 12.083 19.8633 12.1929C18.7017 12.4686 17.5742 12.8222 17.0195 14.4566C16.6299 15.4771 16.6237 16.149 16.5371 16.894V19.5268C15.4191 19.2787 15.4053 18.0019 15.3965 17.4584C15.3375 9.08924 16.4315 4.99259 23.4714 4.97359L23.4707 4.97454ZM23.3587 10.0839C25.6187 12.3537 27.2512 14.1577 29.8098 12.8553C29.9483 15.0933 29.9797 17.296 29.9465 19.5721C29.9465 21.4473 29.3132 23.6038 27.8997 24.488C26.3277 25.4716 24.6738 26.6851 23.5345 26.6814C21.8708 26.6337 20.5886 25.6585 18.6987 24.4685C17.3637 23.6275 17.0335 21.4804 17.0385 19.5956L17.0463 16.6073C17.7711 9.98647 22.8828 14.8257 23.3587 10.084V10.0839ZM20.4915 15.9412C20.0526 15.9413 19.6967 16.2972 19.6966 16.7361C19.6967 17.175 20.0526 17.5309 20.4915 17.531C20.9305 17.5309 21.2864 17.175 21.2865 16.7361C21.2864 16.2971 20.9305 15.9413 20.4915 15.9412ZM26.4603 15.9412C26.0213 15.9413 25.6654 16.2972 25.6654 16.7361C25.6655 17.175 26.0213 17.5309 26.4603 17.531C26.8992 17.5309 27.2551 17.175 27.2552 16.7361C27.2551 16.2971 26.8992 15.9413 26.4603 15.9412ZM23.4253 19.6092C23.0472 19.6129 22.7553 19.6797 22.7593 19.7576C22.7613 19.8385 23.0817 19.9045 23.4761 19.9041C23.8705 19.9041 24.1908 19.8385 24.1929 19.7576C24.1961 19.6756 23.8742 19.6092 23.4761 19.6092C23.4591 19.609 23.4421 19.609 23.4253 19.6092ZM26.3804 21.8708C26.3803 21.8712 26.369 21.8722 26.3687 21.8728C26.3688 21.8732 26.3804 21.8724 26.3804 21.8728V21.8708ZM26.3687 21.8728C26.3528 21.8191 25.1419 21.944 23.6402 22.156C23.5757 22.1635 23.5112 22.1758 23.4468 22.1833C22.0099 22.3908 20.9053 22.5933 20.9254 22.6443C20.9514 22.6964 22.1738 22.5668 23.6675 22.3552C25.1496 22.1451 26.3408 21.9315 26.3687 21.8728ZM30.312 27.4332C31.7933 28.0061 33.7252 28.8021 35.3685 29.5426C36.4334 30.0039 37.5306 30.4636 38.7415 30.8844C41.2866 31.6356 41.2864 33.7513 41.2864 34.9038V41.5658H5.71581V34.9038C5.71581 33.7513 5.71564 31.6339 8.26068 30.8844C9.35636 30.5037 10.3569 30.0899 11.329 29.6735L13.9813 28.5251C14.7933 28.1864 15.7171 27.8181 16.5672 27.486C18.0893 31.5251 19.6231 35.5596 21.1491 39.5969L22.9772 32.2473C22.5045 30.9619 21.6128 29.5345 22.1198 28.5755C23.126 28.997 24.1312 28.9275 25.1373 28.5247C25.5005 29.4748 24.9869 30.788 24.5319 32.0774C24.5319 32.0774 25.3686 35.0042 26.2741 38.0441C26.2676 38.0873 26.2645 38.1027 26.2584 38.1437L30.312 27.4332Z" fill="#333333"/>
</svg>
